remix/System/notification-badge-fill.svg

<svg viewBox="0 0 24 24" fill="currentColor" xmlns="http://www.w3.org/2000/svg"><path d="M13.3414 4C13.1203 4.62556 13 5.29873 13 6C13 9.31371 15.6863 12 19 12C19.7013 12 20.3744 11.8797 21 11.6586V21C21 21.5523 20.5523 22 20 22H4C3.44772 22 3 21.5523 3 21V5C3 4.44772 3.44772 4 4 4H13.3414ZM19 10C16.7909 10 15 8.20914 15 6C15 3.79086 16.7909 2 19 2C21.2091 2 23 3.79086 23 6C23 8.20914 21.2091 10 19 10Z"/></svg>

<svg viewBox="0 0 24 24" xmlns="http://www.w3.org/2000/svg"><path fill="none" d="M0 0h24v24H0Z"/><path d="M13.341 4l-.001-.001c-1.11 3.12.52 6.55 3.65 7.65 1.29.45 2.71.45 4 0v9.34 0c0 .55-.45 1-1 1h-16v0c-.56 0-1-.45-1-1v-16 0c0-.56.44-1 1-1h9.341Zm5.65 6v0c-2.21 0-4-1.8-4-4 0-2.21 1.79-4 4-4v0c2.2 0 4 1.79 4 4 0 2.2-1.8 4-4 4Z"/></svg>
